X: 36449
T: Second Pond
R: jig
M: 6/8
K: Dmajor
|:ADD BDD|cDD dDD|fgf fgf|efe dBA|
ADD BDD|cDD dDD|fgf fgf|1 efe d2c:|2 efe d2e||
|:~a3 aba|~g3 gag|~f3 fgf|efe dBA|
~a3 aba|~g3 gag|~f3 fgf|1 efe d2e:|2 efe d2c||

